X: 24127
T: Longford Tinker, The
R: reel
M: 4/4
K: Dmajor
dBBA B2 Bc|d~B3 fBeB|dBBA B2 dB|ABde ~f3e|
d~B3 f~B3|d~B3 ~f3g|aAAF ABAF|ABde ~f3e||
d2 fd efge|defa gefe|(3ddd fd efge|faaf gfef|
d2 fd efge|defa ~g3a|bgaf gfed|faaf gfed||
f~a3 f~a3|faaf gfed|gb (3bbb gb (3bbb|gbbf gfed|
f~a3 f~a3|faaf g2 ga|bgaf gfed|faaf gfef||

